X: 40
T:MAZURKA CIRCASSIENNE
M:3/4
L:1/8
Q:1/4=90
Z:Yves BELOTTEAU
Z:Yves BELOTTEAU
K:C
|ED/2C3/2 CD/2EF/2|G3/2G3/2 c3/2A3/2|Ac/2BA/2 G3/2E3/2|G3/2C3/2 CD/2EF/2
|
G3/2G3/2 c3/2A3/2|Ac/2BA/2 G3/2G3/2|EG/2c3/2 B3/2DF/2|A3/2G3/2 CD/2E3/2|
EG/2FE/2 D3/2 z/2 |EG/2c3/2 B3/2DF/2|A3/2G3/2 Gc/2B3/2|AG/2AB/2 c3/2c3/2
|
W:
W: From "Falaleiro" http://home.t-online.de/home/pheld/homepage.htm
